src/basic/100/u25CB-circle.svg

<svg width="96" height="128" viewBox="0 0 96 128" fill="none" xmlns="http://www.w3.org/2000/svg">
<path fill-rule="evenodd" clip-rule="evenodd" d="M48,17c-25.9574,0 -47,21.0426 -47,47c0,25.9574 21.0426,47 47,47c25.9574,0 47,-21.0426 47,-47c0,-25.9574 -21.0426,-47 -47,-47zM0,64c0,-26.5097 21.4903,-48 48,-48c26.5097,0 48,21.4903 48,48c0,26.5097 -21.4903,48 -48,48c-26.5097,0 -48,-21.4903 -48,-48z" fill="black"/>
</svg>

<svg width="96" height="128" viewBox="0 0 96 128" fill="none" xmlns="http://www.w3.org/2000/svg">
<path fill-rule="evenodd" clip-rule="evenodd" d="M48 17C22.0426 17 1 38.0426 1 64C1 89.9574 22.0426 111 48 111C73.9574 111 95 89.9574 95 64C95 38.0426 73.9574 17 48 17ZM0 64C0 37.4903 21.4903 16 48 16C74.5097 16 96 37.4903 96 64C96 90.5097 74.5097 112 48 112C21.4903 112 0 90.5097 0 64Z" fill="black"/>
</svg>
